images/BetaFeatures/nearby-rtl.svg

<?xml version="1.0" encoding="UTF-8"?><svg xmlns="http://www.w3.org/2000/svg" width="264" height="162" viewBox="0, 0, 264, 162"><g><path d="M239.167 151.362l11.467 9.995 12.866-9.608v-151.249h-263v151.749l9 6.705v-116.454h39v112.6l4.393-3.73 7.607 5.33v-114.2h155v110.849l9.751 8.031 13.916-10.018zm0 0" fill="#fff"/><path d="M1 1v150.998l8 5.96v-115.958h40v112.019l3.274-2.778.589-.499.633.439 6.504 4.557v-113.738h156v111.099l9.257 7.661 13.295-9.568.644-.466.598.521 10.864 9.47 12.342-9.218v-150.499h-262zm-1-1h264v152l-13.391 10-11.473-10-13.891 10-10.245-8.4v-110.6h-154v114.66l-8.078-5.66-4.922 4.18v-113.18h-38v116.95l-10-7.45v-152.5zm0 0M61 43h154v110.6l-2.145-1.6-12.555 10-13.809-10-14.229 10-12.972-10-12.973 10-13.811-10-12.136 10-13.392-10-14.229 10-12.972-10-12.975 10-5.804-4.34v-114.66h.002zm0 0M253 36c0-7.732-6.268-14-14-14s-14 6.268-14 14 6.268 14 14 14 14-6.268 14-14zm0 0" fill="#E4E4E4"/><path d="M39.262 162l-12.972-10-12.974 10-3.316-2.401v-116.599h38v112.859z" fill="#F1F1F1"/><path d="M226 107v-35h25v35h-25zm0 0M31.49 5h-26v6h26v-6zm0 0M55.49 5v6h-22v-6h22zm0 0M122 6v4h92v-4h-92zm-1-1h94v6h-94v-6zm0 0M79.49 5v6h-22v-6h22zm0 0M102.49 5v6h-13v-6h13zm0 0M87.49 5v6h-6v-6h6zm0 0M110.49 5v6h-6v-6h6zm0 0M255 5v6h-32v-6h32zm0 0" fill="#E4E4E4"/><path d="M262 14.5h-260" stroke="#E4E4E4" stroke-miterlimit="10" fill="none"/><path d="M212 7v2h-2v-2h2zm0 0M251 54h-25v5h25v-5zm0 0" fill="#E4E4E4"/><path d="M123 16h-58v59h58v-59zm0 0" fill="#1480F7"/><path d="M84.995 34.506c4.69-4.7 12.27-4.663 16.96.038 4.69 4.7 4.725 12.312.034 17.012l-8.475 8.444-8.493-8.511c-4.691-4.7-4.716-12.282-.026-16.983zm8.495 13.494c3.313 0 6-2.462 6-5.5s-2.687-5.5-6-5.5c-3.314 0-6 2.462-6 5.5s2.686 5.5 6 5.5zm0 0" fill="#fff"/></g></svg>

<?xml version="1.0" encoding="UTF-8"?>
<!DOCTYPE svg PUBLIC "-//W3C//DTD SVG 1.1//EN" "http://www.w3.org/Graphics/SVG/1.1/DTD/svg11.dtd">
<svg version="1.1" xmlns="http://www.w3.org/2000/svg" xmlns:xlink="http://www.w3.org/1999/xlink" x="0px" y="0px" width="264" height="162" viewBox="0, 0, 264, 162">
  <g id="beta-nearby">
    <path d="M239.167,151.362 L250.634,161.357 L263.5,151.749 L263.5,0.5 L0.5,0.5 L0.5,152.249 L9.5,158.954 L9.5,42.5 L48.5,42.5 L48.5,155.1 L52.893,151.37 L60.5,156.7 L60.5,42.5 L215.5,42.5 L215.5,153.349 L225.251,161.38 L239.167,151.362 L239.167,151.362 z M239.167,151.362" fill="#FFFFFF"/>
    <path d="M1,1 L1,151.998 L9,157.958 L9,43 L9,42 L10,42 L48,42 L49,42 L49,43 L49,154.019 L52.274,151.241 L52.863,150.742 L53.496,151.181 L60,155.738 L60,43 L60,42 L61,42 L215,42 L216,42 L216,43 L216,153.099 L225.257,160.76 L238.552,151.192 L239.196,150.726 L239.794,151.247 L250.658,160.717 L263,151.499 L263,1 L1,1 L1,1 L1,1 z M0,0 L264,0 L264,152 L250.609,162 L239.136,152 L225.245,162 L215,153.6 L215,43 L61,43 L61,157.66 L52.922,152 L48,156.18 L48,43 L10,43 L10,159.95 L0,152.5 L0,0 L0,0 L0,0 L0,0 L0,0 z M0,0" fill="#E4E4E4"/>
    <path d="M61,43 L215,43 L215,112.701 L215,153.6 L212.855,152 L200.3,162 L186.491,152 L172.262,162 L159.29,152 L146.317,162 L132.506,152 L120.37,162 L106.978,152 L92.749,162 L79.777,152 L66.802,162 L60.998,157.66 L60.998,43 L61,43 z M61,43" fill="#E4E4E4"/>
    <path d="M253,36 C253,28.268 246.732,22 239,22 C231.268,22 225,28.268 225,36 C225,43.732 231.268,50 239,50 C246.732,50 253,43.732 253,36 C253,36 253,43.732 253,36 L253,36 L253,36 L253,36 z M253,36" fill="#E4E4E4"/>
    <path d="M39.262,162 L26.29,152 L13.316,162 L10,159.599 L10,43 L48,43 L48,155.859 z" fill="#F1F1F1"/>
    <path d="M226,107 L226,72 L251,72 L251,107 L226,107 L226,107 L226,107 L226,107 L226,107 z M226,107" fill="#E4E4E4"/>
    <path d="M31.49,5 L5.49,5 L5.49,11 L31.49,11 L31.49,5 L31.49,5 L31.49,5 L31.49,5 L31.49,5 z M31.49,5" fill="#E4E4E4"/>
    <path d="M55.49,5 L55.49,11 L33.49,11 L33.49,5 L55.49,5 L55.49,5 z M55.49,5" fill="#E4E4E4"/>
    <path d="M122,6 L122,10 L214,10 L214,6 L122,6 L122,6 L122,6 z M121,5 L215,5 L215,11 L121,11 L121,5 L121,5 L121,5 L121,5 L121,5 z M121,5" fill="#E4E4E4"/>
    <path d="M79.49,5 L79.49,11 L57.49,11 L57.49,5 L79.49,5 L79.49,5 z M79.49,5" fill="#E4E4E4"/>
    <path d="M102.49,5 L102.49,11 L89.49,11 L89.49,5 L102.49,5 L102.49,5 z M102.49,5" fill="#E4E4E4"/>
    <path d="M87.49,5 L87.49,11 L81.49,11 L81.49,5 L87.49,5 L87.49,5 z M87.49,5" fill="#E4E4E4"/>
    <path d="M110.49,5 L110.49,11 L104.49,11 L104.49,5 L110.49,5 L110.49,5 z M110.49,5" fill="#E4E4E4"/>
    <path d="M255,5 L255,11 L223,11 L223,5 L255,5 L255,5 z M255,5" fill="#E4E4E4"/>
    <path d="M262,14.5 L2,14.5" fill-opacity="0" stroke="#E4E4E4" stroke-width="1" stroke-miterlimit="10"/>
    <path d="M212,7 L212,9 L210,9 L210,7 L212,7 L212,7 z M212,7" fill="#E4E4E4"/>
    <path d="M251,54 L226,54 L226,59 L251,59 L251,54 z M251,54" fill="#E4E4E4"/>
    <path d="M123,16 L65,16 L65,75 L123,75 L123,16 z M123,16" fill="#1480F7"/>
    <path d="M84.995,34.506 C89.685,29.806 97.265,29.843 101.955,34.544 C106.645,39.244 106.68,46.856 101.989,51.556 L93.514,60 L85.021,51.489 C80.33,46.789 80.305,39.207 84.995,34.506 L84.995,34.506 L84.995,34.506 z M93.49,48 C96.803,48 99.49,45.538 99.49,42.5 C99.49,39.462 96.803,37 93.49,37 C90.176,37 87.49,39.462 87.49,42.5 C87.49,45.538 90.176,48 93.49,48 L93.49,48 L93.49,48 z M93.49,48" fill="#FFFFFF"/>
  </g>
  <defs/>
</svg>
